X:2
T:Last Night's Fun
C:Trad.
D:"Cooley", track 2
R:reel
M:4/4
K:D
dB|:AD(3FED A2dB|ADdD EFGB|ADED ~A2 (3Bcd|1 egfe d~B3|
ADED A/d/A2B|ADED EFGB|ADED ~A2 (3Bcd|egfe dBBA|
df (3f=ff af (3f=ff|df (3f=ff egfe|df (3f=ff af (3f=ff|afed (3BcBAB|
df (3f=ff af (3f=ff|[d2f2][df] [c2e2] f|afbf afeg|ff ed BAdB:|
